X: 40364
T: Tom Doherty's
R: reel
M: 4/4
K: Adorian
|:e2 ce Aece|edef gefd|e2 ce Aece|dBGB dgfd|
e2 ce Aece|edef gefg|afge fgfe|1 dBGB dgfd:|2 dBGB defg||
|:aAAA eAce|aAAd efgb|aAAA eAcA|dBGB defg|
aAAA eAce|aAAd efgb|afge fgfe|1 dBGB defg:|2 dBGB dgfd||

